icons/figma.svg

<svg xmlns="http://www.w3.org/2000/svg" viewBox="0 0 256 384">
  <path fill="#0acf83" d="M64 384c35.328 0 64-28.672 64-64v-64H64c-35.328 0-64 28.672-64 64s28.672 64 64 64z"/>
  <path fill="#a259ff" d="M0 192c0-35.328 28.672-64 64-64h64v128H64c-35.328 0-64-28.672-64-64z"/>
  <path fill="#f24e1e" d="M0 64C0 28.672 28.672 0 64 0h64v128H64C28.672 128 0 99.328 0 64z"/>
  <path fill="#ff7262" d="M128 0h64c35.328 0 64 28.672 64 64s-28.672 64-64 64h-64z"/>
  <path fill="#1abcfe" d="M256 192c0 35.328-28.672 64-64 64s-64-28.672-64-64 28.672-64 64-64 64 28.672 64 64z"/>
</svg>

<?xml version="1.0" encoding="UTF-8"?>
<svg width="256px" height="384px" viewBox="0 0 256 384" version="1.1" xmlns="http://www.w3.org/2000/svg" xmlns:xlink="http://www.w3.org/1999/xlink" preserveAspectRatio="xMidYMid">
    <g>
        <path d="M64,384 C99.328,384 128,355.328 128,320 L128,256 L64,256 C28.672,256 0,284.672 0,320 C0,355.328 28.672,384 64,384 Z" fill="#0ACF83"></path>
        <path d="M0,192 C0,156.672 28.672,128 64,128 L128,128 L128,256 L64,256 C28.672,256 0,227.328 0,192 Z" fill="#A259FF"></path>
        <path d="M0,64 C0,28.672 28.672,0 64,0 L128,0 L128,128 L64,128 C28.672,128 0,99.328 0,64 Z" fill="#F24E1E"></path>
        <path d="M128,0 L192,0 C227.328,0 256,28.672 256,64 C256,99.328 227.328,128 192,128 L128,128 L128,0 Z" fill="#FF7262"></path>
        <path d="M256,192 C256,227.328 227.328,256 192,256 C156.672,256 128,227.328 128,192 C128,156.672 156.672,128 192,128 C227.328,128 256,156.672 256,192 Z" fill="#1ABCFE"></path>
    </g>
</svg>
